icons/gleam-dark.svg

<svg width="256" height="256" viewBox="0 0 256 256" fill="none" xmlns="http://www.w3.org/2000/svg">
<path d="M196 0H60C26.8629 0 0 26.8629 0 60V196C0 229.137 26.8629 256 60 256H196C229.137 256 256 229.137 256 196V60C256 26.8629 229.137 0 196 0Z" fill="#282828"/>
<g clip-path="url(#clip0_261_11)">
<path d="M103.559 45.2908C106.36 37.3549 116.771 35.5192 122.117 42.0185L150.136 76.0842C153.603 80.2994 158.734 82.7971 164.191 82.93L208.325 84.0038C216.752 84.2087 221.7 93.5255 217.166 100.608L193.378 137.766C191.923 140.037 190.976 142.595 190.599 145.266C190.223 147.936 190.427 150.657 191.198 153.241L203.795 195.5C206.196 203.551 198.863 211.155 190.702 209.034L147.98 197.933C145.369 197.254 142.642 197.146 139.985 197.614C137.328 198.083 134.803 199.117 132.582 200.648L96.2338 225.692C89.2899 230.475 79.7995 225.839 79.3007 217.451L76.686 173.433C76.3624 167.985 73.6819 162.949 69.3441 159.636L34.2812 132.856C27.5984 127.751 29.0622 117.304 36.9098 114.229L78.0151 98.1252C83.0982 96.1337 87.0651 92.0319 88.8811 86.8852L103.559 45.2908Z" fill="#FFAFF3"/>
<path d="M111.213 34.4401C106.234 35.3181 101.683 38.6241 99.7988 43.9635L85.1205 85.5579C83.6895 89.6131 80.5678 92.8418 76.5605 94.4118L35.4551 110.516C24.9072 114.648 22.868 129.157 31.8605 136.025L66.9234 162.805C68.6116 164.094 70.0021 165.731 70.9998 167.606C71.9976 169.481 72.5791 171.549 72.7047 173.669L75.3195 217.687C75.9903 228.98 89.1623 235.405 98.4962 228.976L98.4964 228.975L134.845 203.932L134.846 203.932C136.596 202.725 138.585 201.91 140.678 201.541C142.772 201.172 144.92 201.258 146.977 201.793L146.977 201.793L189.699 212.894C200.669 215.745 210.85 205.201 207.617 194.36L207.617 194.36L195.019 152.102L195.019 152.101C194.412 150.066 194.251 147.924 194.548 145.821C194.844 143.718 195.59 141.704 196.736 139.916L196.736 139.915L220.524 102.757L220.524 102.757C226.625 93.2271 219.747 80.291 208.422 80.0151L164.288 78.9413C159.985 78.8366 155.947 76.8704 153.216 73.5494L125.196 39.4827C121.599 35.11 116.192 33.56 111.212 34.4381M112.553 42.0406C114.815 41.6416 117.287 42.4234 119.036 44.55L147.055 78.6157C151.257 83.7251 157.481 86.7543 164.093 86.9154L208.227 87.9891C213.754 88.1236 216.773 93.8212 213.806 98.4561L190.018 135.615C186.451 141.185 185.485 148.041 187.374 154.379L199.972 196.638C201.541 201.9 197.056 206.563 191.705 205.173L191.704 205.173L148.982 194.072C142.58 192.408 135.764 193.61 130.317 197.363L93.9691 222.406C89.4148 225.543 83.6061 222.695 83.2799 217.214L80.6653 173.196C80.2731 166.592 77.0202 160.481 71.763 156.465L36.7001 129.685C32.3268 126.345 33.2157 119.958 38.3626 117.941L79.4679 101.837C85.6265 99.4243 90.439 94.4492 92.6405 88.2106L92.6405 88.2104L107.319 46.616C108.235 44.0195 110.289 42.4397 112.552 42.0408" fill="#151515"/>
<path d="M98.4264 146.482C102.687 145.731 105.532 141.667 104.781 137.407C104.03 133.146 99.9665 130.301 95.7057 131.052C91.4448 131.803 88.5998 135.866 89.3511 140.127C90.1024 144.388 94.1655 147.233 98.4264 146.482Z" fill="#151515"/>
<path d="M161.547 135.352C165.807 134.601 168.652 130.538 167.901 126.277C167.15 122.016 163.087 119.171 158.826 119.922C154.565 120.674 151.72 124.737 152.471 128.998C153.222 133.259 157.286 136.104 161.547 135.352Z" fill="#151515"/>
<path d="M123.498 144.735C123.009 144.924 122.563 145.207 122.183 145.568C121.804 145.929 121.5 146.362 121.288 146.84C121.075 147.319 120.96 147.835 120.947 148.359C120.934 148.883 121.025 149.404 121.214 149.892C121.706 151.166 122.444 152.331 123.386 153.319L123.386 153.32L123.386 153.32C124.328 154.308 125.456 155.102 126.705 155.654L126.706 155.654C127.954 156.207 129.298 156.508 130.662 156.541L130.664 156.542L130.665 156.542C132.029 156.574 133.387 156.337 134.66 155.846L134.66 155.845C135.934 155.354 137.098 154.616 138.087 153.674L138.087 153.674L138.088 153.673C139.075 152.731 139.868 151.604 140.421 150.356C140.974 149.107 141.276 147.761 141.308 146.394C141.333 145.337 140.936 144.313 140.206 143.548C139.476 142.782 138.472 142.339 137.414 142.314C136.891 142.301 136.37 142.392 135.881 142.581C135.393 142.77 134.947 143.054 134.568 143.415C134.189 143.777 133.885 144.21 133.673 144.689C133.461 145.168 133.346 145.684 133.334 146.207C133.326 146.524 133.256 146.835 133.128 147.124L133.127 147.126L133.127 147.128C132.998 147.418 132.814 147.681 132.584 147.9C132.354 148.119 132.084 148.29 131.787 148.404L131.786 148.405L131.785 148.405C131.489 148.519 131.173 148.575 130.855 148.567C130.537 148.559 130.225 148.489 129.934 148.361L129.933 148.36L129.931 148.359C129.641 148.231 129.38 148.047 129.161 147.817L129.161 147.817L129.16 147.817C128.941 147.587 128.769 147.316 128.655 147.019C128.466 146.531 128.183 146.084 127.822 145.705C127.461 145.325 127.028 145.021 126.549 144.809C126.071 144.597 125.555 144.481 125.031 144.468C124.507 144.456 123.986 144.546 123.498 144.735Z" fill="#151515"/>
</g>
<defs>
<clipPath id="clip0_261_11">
<rect width="199.411" height="190.936" fill="white" transform="translate(13 51.6274) rotate(-10)"/>
</clipPath>
</defs>
</svg>

<svg xmlns="http://www.w3.org/2000/svg" width="256" height="256" fill="none"><path fill="#282828" d="M196 0H60C26.863 0 0 26.863 0 60v136c0 33.137 26.863 60 60 60h136c33.137 0 60-26.863 60-60V60c0-33.137-26.863-60-60-60"/><g clip-path="url(#clip0_261_11)"><path fill="#FFAFF3" d="M103.559 45.29c2.801-7.935 13.212-9.77 18.558-3.271l28.019 34.065a18.8 18.8 0 0 0 14.055 6.846l44.134 1.074c8.427.205 13.375 9.521 8.841 16.604l-23.788 37.158a18.76 18.76 0 0 0-2.18 15.475l12.597 42.259c2.401 8.051-4.932 15.655-13.093 13.534l-42.722-11.101a18.8 18.8 0 0 0-15.398 2.715l-36.348 25.044c-6.944 4.783-16.434.147-16.933-8.241l-2.615-44.018a18.76 18.76 0 0 0-7.342-13.797l-35.063-26.78c-6.683-5.105-5.219-15.552 2.629-18.627l41.105-16.104a18.8 18.8 0 0 0 10.866-11.24z"/><path fill="#151515" d="M111.213 34.44c-4.979.878-9.53 4.184-11.414 9.524L85.12 85.558a14.8 14.8 0 0 1-8.56 8.854l-41.106 16.104c-10.548 4.132-12.587 18.641-3.594 25.509l35.062 26.78a14.77 14.77 0 0 1 5.782 10.864l2.615 44.018c.67 11.293 13.842 17.718 23.176 11.289v-.001l36.349-25.043h.001a14.8 14.8 0 0 1 12.131-2.139l42.722 11.101c10.97 2.851 21.151-7.693 17.918-18.534l-12.598-42.258v-.001a14.75 14.75 0 0 1-.471-6.28 14.75 14.75 0 0 1 2.188-5.905v-.001l23.788-37.158c6.101-9.53-.777-22.466-12.102-22.742l-44.134-1.074a14.8 14.8 0 0 1-11.072-5.392l-28.02-34.066c-3.597-4.373-9.004-5.923-13.984-5.045m1.341 7.603c2.262-.4 4.734.382 6.483 2.509l28.019 34.066a22.8 22.8 0 0 0 17.038 8.3l44.134 1.073c5.527.135 8.546 5.832 5.579 10.467l-23.788 37.159a22.76 22.76 0 0 0-2.644 18.764l12.598 42.259c1.569 5.262-2.916 9.925-8.267 8.535h-.001l-42.722-11.101a22.8 22.8 0 0 0-18.665 3.291l-36.348 25.043c-4.554 3.137-10.363.289-10.69-5.192l-2.614-44.018a22.76 22.76 0 0 0-8.902-16.731L36.7 129.685c-4.373-3.34-3.484-9.727 1.663-11.744l41.105-16.104A22.8 22.8 0 0 0 92.64 88.211l14.678-41.595c.916-2.596 2.97-4.176 5.233-4.575"/><path fill="#151515" d="M98.426 146.482a7.834 7.834 0 1 0-2.721-15.43 7.834 7.834 0 0 0 2.721 15.43m63.121-11.13a7.834 7.834 0 1 0-9.076-6.354 7.833 7.833 0 0 0 9.076 6.354m-38.049 9.383a3.993 3.993 0 0 0-2.284 5.157 10.4 10.4 0 0 0 2.172 3.427v.001c.942.988 2.07 1.782 3.319 2.334h.001c1.248.553 2.592.854 3.956.887l.002.001h.001a10.4 10.4 0 0 0 3.995-.696v-.001a10.4 10.4 0 0 0 3.427-2.171l.001-.001a10.4 10.4 0 0 0 3.22-7.279 3.987 3.987 0 0 0-7.974-.187 2.4 2.4 0 0 1-.206.917l-.001.002v.002a2.4 2.4 0 0 1-1.34 1.276l-.001.001h-.001a2.42 2.42 0 0 1-1.851-.044l-.001-.001-.002-.001a2.4 2.4 0 0 1-.77-.542h-.001a2.4 2.4 0 0 1-.505-.798 4 4 0 0 0-2.106-2.21 4 4 0 0 0-3.051-.074"/></g><defs><clipPath id="clip0_261_11"><path fill="#fff" d="M13 51.627 209.381 17l33.156 188.035-196.381 34.628z"/></clipPath></defs></svg>
